X:1
T: LUCA ALLEGRANZA
T: (A CLASSY TWO-STEP.)
T:THAT ENVIABLE RAG
T:Copyright MMXVI by Luca Allegranza
T:Copyright MMXVI by Luca Allegranza
T:Copyright MMXVI by Luca Allegranza
T:Copyright MMXVI by Luca Allegranza
T:Copyright MMXVI by Luca Allegranza
T:Copyright MMXVI by Luca Allegranza
Z:Copyright MMXVI by Luca Allegranza
%%score { ( 1 2 ) | ( 3 4 ) }
L:1/8
Q:1/4=90
M:2/4
K:Eb
V:1 treble nm="Piano" snm="Pf."
V:2 treble 
V:3 bass 
V:4 bass 
V:1
"^Not too fast."!f! z/"^[Intro]" d/=e/[Bc]/- [Bc]/c/d/e/ | [Ff] [cc']2 [=B=b] | %2
 !arpeggio![Bgb]/e/B/[=Ae]/- [Ae]/g/[_ABf] | [GBe] z !^![egbe'] z |: %4
"^[A1]" z"_Brillante"{/a} [eg]/[df]/ [eg]/[fa][eg]/ | f/e/f/d/- d2 | %6
 z{/a} [eg]/[df]/ [eg]/[fa][eg]/ | f/e/f/d/- d2 | z/ d/=e/[Bc]/- [Bc]/c/d/e/ | f/=e/f/a/- a2 | %10
 z/ =e/^f/[cd]/- [cd]/d/e/f/ | g/^f/g/=b/- b2 | z{/a} [eg]/[df]/ [eg]/[fa][eg]/ | f/e/f/d/- d2 | %14
 z{/a} [eg]/[df]/ [eg]/[fa][eg]/ | f/e/f/d/- d2 | z/ d/=e/[Bc]/- [Bc]/c/d/e/ | [Ff] [cc']2 [=B=b] | %18
 !arpeggio![Bgb]/e/B/[=Ae]/- [Ae]/g/[_ABf] |1 [GBe] z !^![egbe'] z :|2 [GBe] [Bb]/[Bb]/ [Bb][Bb] |: %21
[K:Eb]"^[B]""_Staccato" !>![dd']/f/a/!>![dd']/- [dd']/b/!>![=e=e'] | %22
 !arpeggio![fd'f']/f/a/[dac']/- [dac']/b/a/d/ | [GBe]/B/e/g/ !>![B^fc']<[Begb] | %24
 z/ B/e/g/ c'/b/g/=e/ | [Adf]c'/[dfab]/- [dfab]/c'/[dfab]- | %26
 [dfab]!8va(!c''/[d'f'a'b']/- [d'f'a'b']/c''/[d'f'a'b'] |({bc'd'} e'/e'/)g'/b'/ e''/!8va)!e/g/b/ | %28
 e'/E/G/B/ e z | [dd']/f/a/[dd']/- [dd']/b/[=e=e'] | [fbf']/f/a/[dac']/- [dac']/b/a/d/ | %31
 [GBe]/B/e/g/ !>![B^fc']<[Begb] | z/ B/e/g/ c'/b/e/B/ | =B/A/B/[Be]/- e!>!f | %34
 !>![Beg]/e/c/B/- B/[Beb][Gg]/ | [Adfa]/f/c/_d/ =d/A/B/c/ |1 d/g/f/e/- e[Bb] :|2 d/g/f/e/- e z || %38
"^[A2]" z{/a} [eg]/[df]/ [eg]/[fa][eg]/ | f/e/f/d/- d2 | z{/a} [eg]/[df]/ [eg]/[fa][eg]/ | %41
 f/e/f/d/- d2 | z/ d/=e/[Bc]/- [Bc]/c/d/e/ | f/=e/f/a/- a2 | z/ =e/^f/[cd]/- [cd]/d/e/f/ | %45
 g/^f/g/=b/- b2 | z{/a} [eg]/[df]/ [eg]/[fa][eg]/ | f/e/f/d/- d2 | %48
 z{/a} [eg]/[df]/ [eg]/[fa][eg]/ | f/e/f/d/- d2 | z/ d/=e/[Bc]/- [Bc]/c/d/e/ | [Ff] [cc']2 [=B=b] | %52
 !arpeggio![Bgb]/e/B/[=Ae]/- [Ae]/g/[_ABf] | [GBe] z !^![egbe'] (3c/_d/e/ || %54
[K:Ab]"_Marcato""^[Int]" !>![A=Bf] !>![ABf]2 !>![ABf] | c/ec/ f/e/c/A/ | %56
 !>![A=B=e] !>![ABe]2 !>![ABe] | [GBe] z !^![egbe'] z |:"^[C]""_Sempre legato" c/=B/c/d/- d/c/_B | %59
 A/G/A/F/- F/A/B/c/ | !>!d/c/d/e/- e/d/c | [FB]2 z2 | c/=B/c/d/- d/c/_B | A/G/A/F/- F/c/d/e/ | %64
 [G=B=f]/[GBf]g/ [GBf]/[GBf]g/ | [=EGc=e]2 [B_e]2 | c/=B/c/d/- d/c/_B | A/G/A/F/- F/A/B/c/ | %68
 !>!d/c/d/e/- e/d/c | [FB]2- [FB](3c/=A/F/ | !>![A=Bf] !>![ABf]2 !>![ABf] | c/ec/ f/e/c/A/ | %72
 [EB] (3c/d/=d/ e/f/[Beg] |1 [Acea] z [Be]2 :|2 !tenuto![cea]2 !tenuto![GBde]2 |: %75
[K:Ab]"^[D]" !>![Ad=ea]2 !>![Adeb]2 | !>!c'/a/!>!f/!>!e/- e/c/B/A/- | [=EA]3 D | E4 | %79
 z/ g/a/=a/ [Beb]/ee/4f/4 | e/b/d'/g/- g/f/e | z/ a/b/=b/ [ceac']/ag/4f/4 | [EAe][Ac] [GB][EA] | %83
 [Ad=ea]2 [Adeb]2 | !>!c'/a/!>!f/!>!e/- e/c/B/A/- | [=EA]3 D | !fermata!E4 | z/ e/c/A/ _G/ee/4f/4 | %88
 ed AB | z/ f/e/A/ G/ec/4B/4 |1 !tenuto![CEA]2 !tenuto![G,B,DE]2 :|2 %91
 !^![CEA]!^![EGBe] !^![Acea] z || %92
[K:Eb]"^[A3]"!8va(! z"_Grazioso"{/a'} [e'g']/[d'f']/ [e'g']/[f'a'][e'g']/ | f'/e'/f'/d'/- d'2 | %94
 z{/a'} [e'g']/[d'f']/ [e'g']/[f'a'][e'g']/ | f'/e'/f'/d'/- d'2 | %96
 z/ d'/=e'/[bc']/- [bc']/c'/d'/e'/ | f'/=e'/f'/a'/- a'2 | z/ =e'/^f'/[c'd']/- [c'd']/d'/e'/f'/ | %99
 g'/^f'/g'/=b'/- b'2!8va)! |"_Brillante" z{/a} [eg]/[df]/ [eg]/[fa][eg]/ | f/e/f/d/- d2 | %102
 z{/a} [eg]/[df]/ [eg]/[fa][eg]/ | f/e/f/d/- d2 | z/ d/=e/[Bc]/- [Bc]/c/d/e/ | [Ff] [cc']2 [=B=b] | %106
 !arpeggio![Bgb]/e/B/[=Ae]/- [Ae]/g/[_ABf] | [GBe] (3e/g/b/ !^![egbe'] z || %108
O[Q:1/4=93]"^A little fast" [Begb][Begb] [Begb][Begb] | [=Bea=b][Beab] [Beab][Beab] | %110
[Q:1/4=95] [Begb][Begb] [Begb][Begb] |"^Stringendo al fine" [=Bea=b][Beab] [Beab][Beab] | %112
 [Begb][=Bea=b] [_Beg_b][=Bea=b] | [Begb][ceac'] [Begb][dfad'] | %114
 [egbe']!>![=Bea=b] !>![_Beg_b]!>![dfad'] | %115
 !^![egbe']!8va(! =a'/4b'/4c''/4d''/4!fff! !^![e'g'b'e'']"_FINE." z!8va)! |] %116
V:2
 x/ z G/- G2 | x4 | x4 | x4 |: x4 | [=Bd]>B- B2 | x4 | [=Bd]>B- B2 | x/ z G/- G2 | %9
 [Ac]>[cf]- [cf]2 | x/ z =A/- A2 | [=Bd]>[d=f]- [df]2 | x4 | [=Bd]>B- B2 | x4 | [=Bd]>B- B2 | %16
 x/ z G/- G2 | x4 | x4 |1 x4 :|2 x4 |:[K:Eb] x4 | x4 | x4 | x2 [eg]2 | x4 | x!8va(! x3 | %27
 x5/2!8va)! x3/2 | x4 | x4 | x4 | x4 | x2 [eg]2 | x3/2 z/ B/A/[F=Bd] | x4 | x4 |1 %36
 [FB]>[GB]- [GB] z :|2 [FB]>[GB]- [GB] x || x4 | [=Bd]>B- B2 | x4 | [=Bd]>B- B2 | x/ z G/- G2 | %43
 [Ac]>[cf]- [cf]2 | x/ z =A/- A2 | [=Bd]>[d=f]- [df]2 | x4 | [=Bd]>B- B2 | x4 | [=Bd]>B- B2 | %50
 x/ z G/- G2 | x4 | x4 | x4 ||[K:Ab] x4 | [EA]<[EA] A2 | x4 | x4 |: A>G- G x | [CF]>C- C z | %60
 [FB]>=A- AF | x4 | A>G- G x | [CF]/ x C/- C z | x4 | x2 AG | A>G- G x | [CF]>C- C z | %68
 [FB]>=A- AF | x4 | x4 | [EA]<[EA] A2 | x4 |1 x2 AG :|2 x4 |:[K:Ab] x4 | [cea]>[EAc]- [EAc]2 | %77
 [A,D=E]4 | [A,CE]4 | x4 | B>[Gd]- [Gd]/ z/ z | x4 | x4 | x4 | [cea]>[EAc]- [EAc]2 | [A,D=E]4 | %86
 [A,CE]4 | x2 E>[EA] | x4 | x2 G>G |1 x4 :|2 x4 ||[K:Eb]!8va(! x4 | [=bd']>b- b2 | x4 | %95
 [=bd']>b- b2 | x/ z g/- g2 | [ac']>[c'f']- [c'f']2 | x/ z =a/- a2 | %99
 [=bd']>[d'=f']- [d'f']2!8va)! | x4 | [=Bd]>B- B2 | x4 | [=Bd]>B- B2 | x/ z G/- G2 | x4 | x4 | %107
 x4 || x4 | x4 | x4 | x4 | x4 | x4 | x4 | x!8va(! x3!8va)! |] %116
V:3
 [=E,,=E,][B,C=E] [D,,D,][E,,E,] | [F,,F,][A,CF] [A,,A,][=A,,=A,] | [B,,B,][G,B,E] [C,C][B,,B,] | %3
 [E,,E,] (3z/ G,,/B,,/ !^![E,,,E,,] z |: [C,C] z2 [C,C] | [D,D][G,=B,F] [G,,G,][G,B,F] | %6
 [C,C] z2 [C,C] | [D,D][G,=B,F] [G,,G,][F,,F,] | [=E,,=E,][B,C=E] [D,,D,][E,,E,] | %9
 [F,,F,][A,CF] [C,C][B,,B,] | [=A,,=A,][A,CD^F] [^F,,^F,][A,CDF] | %11
 [G,,G,][G,=B,F] [=A,,=A,][=B,,B,] | [C,C] z2 [C,C] | [D,D][G,=B,F] [G,,G,][G,B,F] | %14
 [C,C] z2 [C,C] | [D,D][G,=B,F] [G,,G,][F,,F,] | [=E,,=E,][B,C=E] [D,,D,][E,,E,] | %17
 [F,,F,][A,CF] [A,,A,][=A,,=A,] | [B,,B,][B,EG] [C,C][B,,B,] |1 %19
 [E,,E,] (3z/ G,,/B,,/ !^![E,,,E,,] z :|2 [E,,E,] z z2 |:[K:Eb] [F,,F,][A,B,D] [D,,D,][A,B,D] | %22
 [F,,F,][A,B,D] [D,,D,][A,B,D] | E,[G,B,E] !>![E,,E,][G,B,E] | E,[G,B,E] [E,,E,][G,,G,] | %25
 [F,,F,][A,B,D] [D,,D,][A,B,D] | [B,,,B,,][A,B,D] [F,,,F,,][A,B,D] | [E,,E,] x x2 | x4 | %29
 [F,,F,][A,B,D] [D,,D,][A,B,D] | [F,,F,][A,B,D] [D,,D,][A,B,D] | E,[G,B,E] !>![E,,E,][G,B,E] | %32
 E,[G,B,E] [E,,E,][G,,G,] | [A,,A,][A,=B,E] [A,,A,]!>![=B,,B,] | !>![B,,B,][G,B,E] [G,,G,][B,,B,] | %35
 [A,,A,][A,DF] [F,,F,][A,DF] |1 B,D, [E,,E,] z :|2 B,D, [E,,E,] z || [C,C] z2 [C,C] | %39
 [D,D][G,=B,F] [G,,G,][G,B,F] | [C,C] z2 [C,C] | [D,D][G,=B,F] [G,,G,][F,,F,] | %42
 [=E,,=E,][B,C=E] [D,,D,][E,,E,] | [F,,F,][A,CF] [C,C][B,,B,] | %44
 [=A,,=A,][A,CD^F] [^F,,^F,][A,CDF] | [G,,G,][G,=B,F] [=A,,=A,][=B,,B,] | [C,C] z2 [C,C] | %47
 [D,D][G,=B,F] [G,,G,][G,B,F] | [C,C] z2 [C,C] | [D,D][G,=B,F] [G,,G,][F,,F,] | %50
 [=E,,=E,][B,C=E] [D,,D,][E,,E,] | [F,,F,][A,CF] [A,,A,][=A,,=A,] | [B,,B,][B,EG] [C,C][B,,B,] | %53
 [E,,E,] (3z/ G,,/B,,/ !^![E,,,E,,] z ||[K:Ab] !>![=D,,=D,] !>![D,,D,]2 !>![D,,D,] | %55
 [A,,A,][E,A,C] [E,,E,][E,A,C] | !>![=E,,=E,] !>![E,,E,]2 !>![E,,E,] | %57
 [E,,E,][B,,,B,,] !^![E,,,E,,] z |: [A,,A,][E,A,C] [G,,G,][=E,B,C] | [F,,F,][A,C] [C,,C,][A,CF] | %60
 !>![D,,D,][F,A,D] [C,,C,][F,=A,E] | [B,,B,][F,B,D] [F,,F,][F,B,D] | %62
 [A,,A,][E,A,C] [=E,,=E,][D,E,G,B,D] | [F,,F,][A,C] [F,,F,][E,,E,] | %64
 [=D,,=D,][F,=B,D] [_D,,_D,][F,B,D] | [C,,C,][_C,,_C,] [B,,,B,,][E,,E,] | %66
 [A,,A,][E,A,C] [G,,G,][=E,B,C] | [F,,F,][A,C] [C,,C,][A,CF] | !>![D,,D,][F,A,D] [C,,C,][F,=A,E] | %69
 [B,,B,][F,B,D] [F,,F,] z | !>![=D,,=D,] !>![D,,D,]2 !>![D,,D,] | [A,,A,]2 [F,EF]2 | %72
 [G,,G,] (3A,/B,/=B,/ C/D/[E,E] |1 [A,,,A,,][_C,,_C,] [B,,,B,,][E,,E,] :|2 [A,,A,]C, [E,,E,]2 |: %75
[K:Ab]!ped! !>!=E/D/A,/!>!=E,/- E,/D,/A,,/E,,/!ped-up! | !>!A,,!>!=D,/!>!E,/- E,2 | %77
!ped! =E,/D,/A,,/=E,,/- E,,/!ped-up!A,,/D,/E,/ |!ped! E,/C,/A,,/E,,/-!ped-up! E,, (3G,,/A,,/=A,,/ | %79
 B,,[B,DG] [G,,G,][B,DG] | [B,,B,][B,DG] [G,,G,][B,DG] | [A,,A,][CEA] [E,,E,][E,A,C] | %82
!ped! C/E/B,/E/ G,/E/E,/E/!ped-up! | =E/D/A,/=E,/- E,/D,/A,,/E,,/ | !>!A,,!>!=D,/!>!E,/- E,2 | %85
!ped! =E,/D,/A,,/=E,,/- E,,/!ped-up!A,,/D,/E,/ | E,/C,/A,,/!fermata!E,,/- E,,2 | %87
 [A,,A,][_G,A,E] [E,,E,][=E,,=E,] | [F,,F,][A,DF] [_F,_F][B,DF] | [E,,E,][A,CE] [E,,E,][G,DE] |1 %90
 [A,,A,]C, [E,,E,]2 :|2 !^![A,,A,]!^![E,,E,] !^![A,,,A,,] z ||[K:Eb][K:treble] [Cc] z2 [Cc] | %93
 [Dd][G=Bf] [G,G][GBf] | [Cc] z2 [Cc] | [Dd][G=Bf] [G,G][F,F] | [=E,=E][Bc=e] [D,D][E,E] | %97
 [F,F][Acf] [Cc][B,B] | [=A,=A][Acd^f] [^F,^F][Acdf] |[K:bass] [G,,G,][G,=B,F] [=A,,=A,][=B,,B,] | %100
 [C,C] z2 [C,C] | [D,D][G,=B,F] [G,,G,][G,B,F] | [C,C] z2 [C,C] | [D,D][G,=B,F] [G,,G,][F,,F,] | %104
 [=E,,=E,][B,C=E] [D,,D,][E,,E,] | [F,,F,][A,CF] [A,,A,][=A,,=A,] | [B,,B,][B,EG] [C,C][B,,B,] | %107
 [E,,E,] (3E,,/G,,/B,,/ !^![E,,,E,,][B,,,B,,] || %108
 [E,,E,]/[B,,B,][A,,A,]/ [_G,,_G,]/[F,,F,]/[E,,E,]/[D,,D,]/ | %109
 [E,,E,]/[=B,,=B,][_B,,_B,]/ [A,,A,]/[_G,,_G,]/[F,,F,]/[B,,,B,,]/ | %110
 [E,,E,]/[B,,B,][A,,A,]/ [_G,,_G,]/[F,,F,]/[E,,E,]/[D,,D,]/ | %111
 [E,,E,]/[=B,,=B,][_B,,_B,]/ [A,,A,]/[_G,,_G,]/[F,,F,]/[B,,,B,,]/ | %112
 [E,,E,](3[E,,E,]/[E,,E,]/[E,,E,]/ [E,,E,](3[E,,E,]/[E,,E,]/[E,,E,]/ | %113
 [B,,,B,,](3[B,,,B,,]/[B,,,B,,]/[B,,,B,,]/ [B,,,B,,](3[B,,,B,,]/[B,,,B,,]/[B,,,B,,]/ | %114
 [E,,E,] (3B,/A,/G,/ (6:4:6F,/G,/A,/B,/C/D/ | !^![E,,B,,E,] z !^![E,,,E,,] z |] %116
V:4
 x4 | x4 | x4 | x4 |: x4 | x4 | x4 | x4 | x4 | x4 | x4 | x4 | x4 | x4 | x4 | x4 | x4 | x4 | x4 |1 %19
 x4 :|2 x4 |:[K:Eb] x4 | x4 | x4 | x4 | x4 | x4 | x4 | x4 | x4 | x4 | x4 | x4 | x4 | x4 | x4 |1 %36
 B,,2 x2 :|2 B,,2 x2 || x4 | x4 | x4 | x4 | x4 | x4 | x4 | x4 | x4 | x4 | x4 | x4 | x4 | x4 | x4 | %53
 x4 ||[K:Ab] x4 | x4 | x4 | x4 |: x4 | x4 | x4 | x4 | x4 | x4 | x4 | x4 | x4 | x4 | x4 | x4 | x4 | %71
 x4 | x4 |1 x4 :|2 x4 |:[K:Ab] =E,4 | x4 | x4 | x4 | x4 | x4 | x4 | x4 | =E,4 | x4 | x4 | x4 | x4 | %88
 x4 | x4 |1 x4 :|2 x4 ||[K:Eb][K:treble] x4 | x4 | x4 | x4 | x4 | x4 | x4 |[K:bass] x4 | x4 | x4 | %102
 x4 | x4 | x4 | x4 | x4 | x4 || x4 | x4 | x4 | x4 | x4 | x4 | x4 | x4 |] %116

